dist/img/time.svg

<svg width="64" height="64" viewBox="0 0 64 64" fill="none" xmlns="http://www.w3.org/2000/svg">
<path d="M31 2C15.0117 2 2 15.0078 2 31C2 46.9922 15.0117 60 31 60C46.9883 60 60 46.9922 60 31C60 15.0078 46.9883 2 31 2ZM31 4C45.8867 4 58 16.1133 58 31C58 45.8867 45.8867 58 31 58C16.1133 58 4 45.8867 4 31C4 16.1133 16.1133 4 31 4ZM31 11C24.7031 11 18.75 14.0312 15 19.0156V14.918C15 14.3672 14.5547 13.918 14 13.918C13.4453 13.918 13 14.3672 13 14.918V22C13 22.5508 13.4453 23 14 23H21C21.5547 23 22 22.5508 22 22C22 21.4492 21.5547 21 21 21H16.0391C19.3633 16.0469 25.0117 13 31 13C40.9258 13 49 21.0742 49 31C49 40.9258 40.9258 49 31 49C25.9766 49 21.3125 46.9805 17.875 43.3164C17.4922 42.9141 16.8633 42.8945 16.457 43.2695C16.0586 43.6484 16.0352 44.2812 16.4141 44.6875C20.1836 48.6992 25.4961 51 31 51C42.0273 51 51 42.0273 51 31C51 19.9727 42.0273 11 31 11ZM31 16C30.4453 16 30 16.4492 30 17V19C30 19.5508 30.4453 20 31 20C31.5547 20 32 19.5508 32 19V17C32 16.4492 31.5547 16 31 16ZM41 20C40.7461 20 40.4883 20.0977 40.293 20.293L31.5117 29.0742C31.3477 29.0312 31.1797 29 31 29C29.8984 29 29 29.8984 29 31C29 32.1016 29.8984 33 31 33C31.1797 33 31.3477 32.9688 31.5117 32.9258L35.793 37.207C35.9883 37.4023 36.2422 37.5 36.5 37.5C36.7578 37.5 37.0117 37.4023 37.207 37.207C37.5977 36.8164 37.5977 36.1836 37.207 35.793L32.9258 31.5117C32.9688 31.3477 33 31.1797 33 31C33 30.8203 32.9688 30.6523 32.9258 30.4883L41.707 21.707C42.0977 21.3164 42.0977 20.6836 41.707 20.293C41.5117 20.0977 41.2539 20 41 20ZM43.9961 24.7539C43.8672 24.7539 43.7344 24.7773 43.6055 24.8281L41.75 25.5781C41.2383 25.7852 40.9922 26.3672 41.1992 26.8789C41.3555 27.2695 41.7305 27.5039 42.125 27.5039C42.25 27.5039 42.3789 27.4844 42.5 27.4336L44.3555 26.6836C44.8672 26.4766 45.1133 25.8945 44.9062 25.3789C44.75 24.9961 44.3867 24.7617 43.9961 24.7539ZM17 30C16.4453 30 16 30.4492 16 31C16 31.5508 16.4453 32 17 32H19C19.5547 32 20 31.5508 20 31C20 30.4492 19.5547 30 19 30H17ZM43 30C42.4453 30 42 30.4492 42 31C42 31.5508 42.4453 32 43 32H45C45.5547 32 46 31.5508 46 31C46 30.4492 45.5547 30 45 30H43ZM42.1094 34.4961C41.7227 34.5 41.3555 34.7344 41.1992 35.1211C40.9922 35.6328 41.2383 36.2148 41.75 36.4219L43.6055 37.1719C43.7305 37.2227 43.8555 37.2461 43.9805 37.2461C44.375 37.2461 44.75 37.0078 44.9062 36.6211C45.1133 36.1055 44.8672 35.5234 44.3555 35.3164L42.5 34.5664C42.375 34.5156 42.2422 34.4922 42.1094 34.4961ZM13.4961 37.4102C13.3672 37.4102 13.2344 37.4336 13.1094 37.4883C12.5977 37.7031 12.3633 38.2891 12.5781 38.7969C12.918 39.5977 13.3086 40.3789 13.7461 41.125C13.9336 41.4414 14.2656 41.6133 14.6094 41.6133C14.7812 41.6133 14.957 41.5742 15.1133 41.4805C15.5898 41.1992 15.75 40.5859 15.4688 40.1094C15.0781 39.4375 14.7227 38.7344 14.4219 38.0195C14.2578 37.6367 13.8867 37.4102 13.4961 37.4102ZM39.6133 38.3359C39.3594 38.3398 39.1055 38.4414 38.9102 38.6406C38.5273 39.0391 38.5391 39.6719 38.9375 40.0547L40.375 41.4414C40.5664 41.6328 40.8164 41.7227 41.0664 41.7227C41.332 41.7227 41.5938 41.6211 41.7891 41.4219C42.1719 41.0234 42.1602 40.3906 41.7656 40.0039L40.3281 38.6172C40.1289 38.4258 39.8711 38.332 39.6133 38.3359ZM31 42C30.4453 42 30 42.4492 30 43V45C30 45.5508 30.4453 46 31 46C31.5547 46 32 45.5508 32 45V43C32 42.4492 31.5547 42 31 42Z" fill="black"/>
<path d="M31 16C30.4453 16 30 16.4492 30 17V19C30 19.5508 30.4453 20 31 20C31.5547 20 32 19.5508 32 19V17C32 16.4492 31.5547 16 31 16ZM41 20C40.7461 20 40.4883 20.0977 40.293 20.293L31.5117 29.0742C31.3477 29.0312 31.1797 29 31 29C29.8984 29 29 29.8984 29 31C29 32.1016 29.8984 33 31 33C31.1797 33 31.3477 32.9688 31.5117 32.9258L35.793 37.207C35.9883 37.4023 36.2422 37.5 36.5 37.5C36.7578 37.5 37.0117 37.4023 37.207 37.207C37.5977 36.8164 37.5977 36.1836 37.207 35.793L32.9258 31.5117C32.9688 31.3477 33 31.1797 33 31C33 30.8203 32.9688 30.6523 32.9258 30.4883L41.707 21.707C42.0977 21.3164 42.0977 20.6836 41.707 20.293C41.5117 20.0977 41.2539 20 41 20ZM43.9961 24.7539C43.8672 24.7539 43.7344 24.7773 43.6055 24.8281L41.75 25.5781C41.2383 25.7852 40.9922 26.3672 41.1992 26.8789C41.3555 27.2695 41.7305 27.5039 42.125 27.5039C42.25 27.5039 42.3789 27.4844 42.5 27.4336L44.3555 26.6836C44.8672 26.4766 45.1133 25.8945 44.9062 25.3789C44.75 24.9961 44.3867 24.7617 43.9961 24.7539ZM17 30C16.4453 30 16 30.4492 16 31C16 31.5508 16.4453 32 17 32H19C19.5547 32 20 31.5508 20 31C20 30.4492 19.5547 30 19 30H17ZM43 30C42.4453 30 42 30.4492 42 31C42 31.5508 42.4453 32 43 32H45C45.5547 32 46 31.5508 46 31C46 30.4492 45.5547 30 45 30H43ZM42.1094 34.4961C41.7227 34.5 41.3555 34.7344 41.1992 35.1211C40.9922 35.6328 41.2383 36.2148 41.75 36.4219L43.6055 37.1719C43.7305 37.2227 43.8555 37.2461 43.9805 37.2461C44.375 37.2461 44.75 37.0078 44.9062 36.6211C45.1133 36.1055 44.8672 35.5234 44.3555 35.3164L42.5 34.5664C42.375 34.5156 42.2422 34.4922 42.1094 34.4961ZM13.4961 37.4102C13.3672 37.4102 13.2344 37.4336 13.1094 37.4883C12.5977 37.7031 12.3633 38.2891 12.5781 38.7969C12.918 39.5977 13.3086 40.3789 13.7461 41.125C13.9336 41.4414 14.2656 41.6133 14.6094 41.6133C14.7812 41.6133 14.957 41.5742 15.1133 41.4805C15.5898 41.1992 15.75 40.5859 15.4688 40.1094C15.0781 39.4375 14.7227 38.7344 14.4219 38.0195C14.2578 37.6367 13.8867 37.4102 13.4961 37.4102ZM39.6133 38.3359C39.3594 38.3398 39.1055 38.4414 38.9102 38.6406C38.5273 39.0391 38.5391 39.6719 38.9375 40.0547L40.375 41.4414C40.5664 41.6328 40.8164 41.7227 41.0664 41.7227C41.332 41.7227 41.5938 41.6211 41.7891 41.4219C42.1719 41.0234 42.1602 40.3906 41.7656 40.0039L40.3281 38.6172C40.1289 38.4258 39.8711 38.332 39.6133 38.3359ZM31 42C30.4453 42 30 42.4492 30 43V45C30 45.5508 30.4453 46 31 46C31.5547 46 32 45.5508 32 45V43C32 42.4492 31.5547 42 31 42Z" fill="#E12025"/>
</svg>

<svg xmlns="http://www.w3.org/2000/svg" fill="none" viewBox="0 0 64 64"><path fill="#000" d="M31 2C15.012 2 2 15.008 2 31s13.012 29 29 29 29-13.008 29-29S46.988 2 31 2zm0 2c14.887 0 27 12.113 27 27S45.887 58 31 58 4 45.887 4 31 16.113 4 31 4zm0 7c-6.297 0-12.25 3.031-16 8.016v-4.098a1 1 0 10-2 0V22a1 1 0 001 1h7a1 1 0 100-2h-4.96c3.323-4.953 8.972-8 14.96-8 9.926 0 18 8.074 18 18s-8.074 18-18 18c-5.023 0-9.688-2.02-13.125-5.684a1.009 1.009 0 00-1.418-.047 1.008 1.008 0 00-.043 1.419A20.084 20.084 0 0031 51c11.027 0 20-8.973 20-20s-8.973-20-20-20zm0 5a1 1 0 00-1 1v2a1 1 0 102 0v-2a1 1 0 00-1-1zm10 4a1 1 0 00-.707.293l-8.781 8.781A1.997 1.997 0 0031 29c-1.102 0-2 .898-2 2 0 1.102.898 2 2 2 .18 0 .348-.031.512-.074l4.281 4.281c.195.195.45.293.707.293a1 1 0 00.707-1.707l-4.281-4.281c.043-.164.074-.332.074-.512s-.031-.348-.074-.512l8.781-8.781A1 1 0 0041 20zm2.996 4.754c-.129 0-.262.023-.39.074l-1.856.75a.998.998 0 00.375 1.926c.125 0 .254-.02.375-.07l1.855-.75a1.001 1.001 0 00-.359-1.93zM17 30a1 1 0 100 2h2a1 1 0 100-2h-2zm26 0a1 1 0 100 2h2a1 1 0 100-2h-2zm-.89 4.496a.998.998 0 00-.36 1.926l1.855.75a1.001 1.001 0 00.75-1.855l-1.855-.75a.961.961 0 00-.39-.07zM13.495 37.41a.996.996 0 00-.918 1.387c.34.8.73 1.582 1.168 2.328.188.316.52.488.863.488.172 0 .348-.039.504-.133.477-.28.637-.894.356-1.37a18.297 18.297 0 01-1.047-2.09 1.005 1.005 0 00-.926-.61zm26.117.926a1 1 0 00-.676 1.719l1.438 1.386a1.008 1.008 0 001.414-.02 1.008 1.008 0 00-.023-1.417l-1.438-1.387a1.006 1.006 0 00-.715-.281zM31 42a1 1 0 00-1 1v2a1 1 0 102 0v-2a1 1 0 00-1-1z"/><path fill="#E12025" d="M31 16a1 1 0 00-1 1v2a1 1 0 102 0v-2a1 1 0 00-1-1zm10 4a1 1 0 00-.707.293l-8.781 8.781A1.997 1.997 0 0031 29c-1.102 0-2 .898-2 2 0 1.102.898 2 2 2 .18 0 .348-.031.512-.074l4.281 4.281c.195.195.45.293.707.293a1 1 0 00.707-1.707l-4.281-4.281c.043-.164.074-.332.074-.512s-.031-.348-.074-.512l8.781-8.781A1 1 0 0041 20zm2.996 4.754c-.129 0-.262.023-.39.074l-1.856.75a.998.998 0 00.375 1.926c.125 0 .254-.02.375-.07l1.855-.75a1.001 1.001 0 00-.359-1.93zM17 30a1 1 0 100 2h2a1 1 0 100-2h-2zm26 0a1 1 0 100 2h2a1 1 0 100-2h-2zm-.89 4.496a.998.998 0 00-.36 1.926l1.855.75a1.001 1.001 0 00.75-1.855l-1.855-.75a.961.961 0 00-.39-.07zM13.495 37.41a.996.996 0 00-.918 1.387c.34.8.73 1.582 1.168 2.328.188.316.52.488.863.488.172 0 .348-.039.504-.133.477-.28.637-.894.356-1.37a18.297 18.297 0 01-1.047-2.09 1.005 1.005 0 00-.926-.61zm26.117.926a1 1 0 00-.676 1.719l1.438 1.386a1.008 1.008 0 001.414-.02 1.008 1.008 0 00-.023-1.417l-1.438-1.387a1.006 1.006 0 00-.715-.281zM31 42a1 1 0 00-1 1v2a1 1 0 102 0v-2a1 1 0 00-1-1z"/></svg>
